X:1
T: Miss Jane Douglas's Favourite
C:R. Mackintosh
R:Jig
Q: 180
K:G
M:6/8
L:1/8
|:d1/2c1/2|B3 GAB|A3 EFG|FEF DEF|GAB ABc|
BAB GAB|A3 EFG|FGA DEF|G3 G2:|
B|G2g- gdc|Bcd GAB|A2a- abg|fga def|
|1G2g- gdc|Bcd efg|dcB AGF|G3 G2:|
|2gab afd|efg fdB|edc BcA|G3 G2||
